!!!OTL: O FREDA UEBER FREDA
!!!ARE: Europa, Mitteleuropa, Deutschland, Schlesien, Oppeln
!!!SCT: E1945
!!!YEM: Copyright 1995, estate of Helmut Schaffrath.
**kern
*ICvox
*Ivox
*M4/4
*k[b-]
*F:
{4c
=1
4f
4a
4cc
8dd
8ee
=2
2ff
4cc}
{4cc
=3
4dd
4cc
4b-
4a
=4
2g
4r}
{4c
=5
4f
4a
4cc
8dd
8ee
=6
2ff
4cc}
{4cc
=7
4dd
4cc
4b-
4a
=8
2g
4r}
{4f
=9
4a
4a
4cc
4cc
=10
2b-
4a}
{4f
=11
4a
4a
4b-
8a
8b-
=12
2cc
4r}
{4f
=13
4f
4a
4cc
8dd
8ee
=14
2ff
4cc}
{4b-
=15
4a
4f
4g
4e
=16
2f
4r}
==
!!!AGN: geistlich, Fest - Lied, Weihnachten
!!!ONB: ESAC (Essen Associative Code) Database: ERK3
!!!AMT: simple quadruple
!!!AIN: vox
!!!EED: Helmut Schaffrath
!!!EEV: 1.0
*-
